X:1
T:Title
%%score ( 1 2 ) ( 3 4 )
L:1/8
Q:1/4=65
M:4/4
K:Eb
V:1 treble nm="Drawbar Organ, Soprano"
V:2 treble 
V:3 bass nm="Drawbar Organ, Savoie, Harrison Millard"
V:4 bass 
V:1
 (3[GB][_G=A][=GB] [Gf]>[Ge] [EG]>[_Gc] [=GB]2 | (3[DF][D=E][DF] [_EG]>[FA] [Ac]>[GB] [GB]2 | %2
w: By~Harrison~Millard,~1873 * * * * * * *||
 (3[GB][_G=A][=GB] [Gf]>[Ge] [EG]>[_Gc] [=GB]2 | (3[DF][DB][Ec] [Fd]>[Fe] [Ed]>[Ec] [DB]2 | %4
w: ||
 (3[FA][=EG][FA] [Ac]>[Ac] (3[Ac][GB][FA] [_EG]2 | (3[GB][FA][GB] [ce]>[Bd] (3[Ac][GB][FA] [EG]2 | %6
w: ||
 (3[GB][Gc][G_d] (3[Ac] z [Ac] (3[=A-c][A=d][Ae] [Fd]2 | %7
w: |
 (3[Ee][EB][EG] [Ed]>[Ec] (3[D-B][DF][DA] [EG]2 | (3[Ee][EB][EG] [Ed]>[Ec] (3[D-B][DF][DG] E2 | %9
w: ||
 B2 z2 z4 | B2 z2 z4 | z8 |] %12
w: |||
V:2
 x8 | x8 | x8 | x8 | x8 | x8 | x8 | x8 | x8 | DE [FB]>[GB] [EG]4 | DE [FB]>[GB] [EB]4- | %11
 [EB]2 z2 z4 |] %12
V:3
 (3[E,B,][E,B,][E,B,] [E,B,]>[E,B,] [E,B,]>[E,=A,] [E,B,]2 | %1
 (3[B,,B,][B,,B,][B,,B,] [B,,B,]>[B,,B,] [E,B,]>[E,B,] [E,B,]2 | %2
 (3[E,B,][E,B,][E,B,] [E,B,]>[E,B,] [E,B,]>[E,=A,] [E,B,]2 | %3
 (3[F,B,][F,B,][F,B,] [F,B,]>[F,B,] [F,=A,]>[F,A,] [B,,B,]2 | %4
 (3[B,,B,][B,,B,][B,,B,] [B,,B,]>[B,,B,] (3:2:2[E,B,]2 [E,B,] [E,B,]2 | %5
 (3[B,,B,][B,,B,][B,,B,] [B,,B,]>[B,,B,] (3:2:2[E,B,]2 [E,B,] [E,B,]2 | %6
 (3[E,_D][E,D][E,B,] (3A, z [A,E] (3:2:2[F,E]2 [F,C] [A,B,]2 | %7
 (3[G,B,][G,B,][G,B,] [A,C]>[A,C] (3:2:2[B,,A,]2 [B,,B,] [E,B,]2 | %8
 (3[G,B,][G,B,][G,B,] [A,C]>[A,C] (3:2:2[B,,A,]2 [B,,B,] [E,G,]2 | F,G, [B,,A,]>[B,,B,] [E,B,]4 | %10
 F,G, [B,,A,]>[B,,B,] [E,G,]4- | [E,G,]2 z2 z4 |] %12
V:4
 x8 | x8 | x8 | x8 | x8 | x8 | x8 | x8 | x8 | C,2 z2 z4 | B,,2 z2 z4 | x8 |] %12

